raw-svg/hammer.svg

<svg fill="none" height="24" viewBox="0 0 24 24" width="24" xmlns="http://www.w3.org/2000/svg"><path clip-rule="evenodd" d="m11.5768 4.23741c-.0977-.09763-.2559-.09763-.3536 0l-2.18577 2.18578c-.09763.09764-.09763.25593 0 .35356l8.18577 8.18575c.0977.0977.2559.0977.3536 0l2.1858-2.1858c.0976-.0976.0976-.2559 0-.3535zm-1.4142-1.06066c.6834-.68342 1.7914-.68342 2.4748 0l8.1858 8.18575c.6834.6835.6834 1.7915 0 2.4749l-2.1858 2.1858c-.6834.6834-1.7914.6834-2.4748 0l-2.3626-2.3626-6.66967 6.6697c-.95564.9556-2.50503.9556-3.46066 0-.95564-.9556-.95564-2.505 0-3.4607l6.66963-6.6696-2.36253-2.36259c-.68341-.68342-.68341-1.79146 0-2.47488zm1.2374 8.08385-6.66967 6.6697c-.36985.3699-.36985.9695 0 1.3393.36985.3699.96949.3699 1.33934 0l6.66963-6.6696z" fill="#000" fill-rule="evenodd"/></svg>

<svg width="24" height="24" viewBox="0 0 24 24" fill="none" xmlns="http://www.w3.org/2000/svg">
<path fill-rule="evenodd" clip-rule="evenodd" d="M11.5768 4.23741C11.4791 4.13978 11.3209 4.13978 11.2232 4.23741L9.03743 6.42319C8.9398 6.52083 8.9398 6.67912 9.03743 6.77675L17.2232 14.9625C17.3209 15.0602 17.4791 15.0602 17.5768 14.9625L19.7626 12.7767C19.8602 12.6791 19.8602 12.5208 19.7626 12.4232L11.5768 4.23741ZM10.1626 3.17675C10.846 2.49333 11.954 2.49333 12.6374 3.17675L20.8232 11.3625C21.5066 12.046 21.5066 13.154 20.8232 13.8374L18.6374 16.0232C17.954 16.7066 16.846 16.7066 16.1626 16.0232L13.8 13.6606L7.13033 20.3303C6.17469 21.2859 4.6253 21.2859 3.66967 20.3303C2.71403 19.3747 2.71403 17.8253 3.66967 16.8696L10.3393 10.2L7.97677 7.83741C7.29336 7.15399 7.29336 6.04595 7.97677 5.36253L10.1626 3.17675ZM11.4 11.2606L4.73033 17.9303C4.36048 18.3002 4.36048 18.8998 4.73033 19.2696C5.10018 19.6395 5.69982 19.6395 6.06967 19.2696L12.7393 12.6L11.4 11.2606Z" fill="black"/>
</svg>
